X:2200 
T:Illiam y Thalhear 
C:Traditional
O:Isle of Man
Z:Clague collection
B:Kiaull Vannin #200 
M:2/4 
L:1/8 
Q:160 
K:G 
A2 cd|e2 e2|f2 d2|e2 A2|A2 c>d|e2 e2|f2 d2|e4| 
c2 c2|B2 B2|A2 A2|G2 E2|A2 A2|E2 A2|B2 G2|A4||



